HTML/assets/camera.svg

<?xml version="1.0" encoding="UTF-8"?>
<svg width="24px" height="24px" viewBox="0 0 24 24" version="1.1" xmlns="http://www.w3.org/2000/svg" xmlns:xlink="http://www.w3.org/1999/xlink">
    <!-- Generator: sketchtool 49 (51002) - http://www.bohemiancoding.com/sketch -->
    <title>C278B81E-3B48-4016-BBAA-E800640E39D5</title>
    <desc>Created with sketchtool.</desc>
    <defs>
        <path d="M9.53518376,4 L7.83205029,6.5547002 C7.64658452,6.83289886 7.33435319,7 7,7 L3,7 C2.44771525,7 2,7.44771525 2,8 L2,19 C2,19.5522847 2.44771525,20 3,20 L21,20 C21.5522847,20 22,19.5522847 22,19 L22,8 C22,7.44771525 21.5522847,7 21,7 L17,7 C16.6656468,7 16.3534155,6.83289886 16.1679497,6.5547002 L14.4648162,4 L9.53518376,4 Z M17.5351838,5 L21,5 C22.6568542,5 24,6.34314575 24,8 L24,19 C24,20.6568542 22.6568542,22 21,22 L3,22 C1.34314575,22 3.33066907e-16,20.6568542 0,19 L0,8 C-1.66533454e-16,6.34314575 1.34314575,5 3,5 L6.46481624,5 L8.16794971,2.4452998 C8.35341548,2.16710114 8.66564681,2 9,2 L15,2 C15.3343532,2 15.6465845,2.16710114 15.8320503,2.4452998 L17.5351838,5 Z M12,18 C14.7614237,18 17,15.7614237 17,13 C17,10.2385763 14.7614237,8 12,8 C9.23857625,8 7,10.2385763 7,13 C7,15.7614237 9.23857625,18 12,18 Z M12,16 C10.3431458,16 9,14.6568542 9,13 C9,11.3431458 10.3431458,10 12,10 C13.6568542,10 15,11.3431458 15,13 C15,14.6568542 13.6568542,16 12,16 Z" id="path-1"></path>
    </defs>
    <g id="Symbols" stroke="none" stroke-width="1" fill="none" fill-rule="evenodd">
        <g id="Icons-/-24px-/-camera">
            <mask id="mask-2" fill="white">
                <use xlink:href="#path-1"></use>
            </mask>
            <use id="Combined-Shape" fill="#000000" fill-rule="nonzero" xlink:href="#path-1"></use>
            <g id="UI/Color/Flat/Black" mask="url(#mask-2)" fill="#000000">
                <rect id="Base" x="0" y="0" width="24" height="24"></rect>
            </g>
        </g>
    </g>
</svg>

<svg xmlns="http://www.w3.org/2000/svg" xmlns:xlink="http://www.w3.org/1999/xlink" width="24" height="24" viewBox="0 0 24 24">
    <defs>
        <path id="a" d="M9.535 4L7.832 6.555A1 1 0 0 1 7 7H3a1 1 0 0 0-1 1v11a1 1 0 0 0 1 1h18a1 1 0 0 0 1-1V8a1 1 0 0 0-1-1h-4a1 1 0 0 1-.832-.445L14.465 4h-4.93zm8 1H21a3 3 0 0 1 3 3v11a3 3 0 0 1-3 3H3a3 3 0 0 1-3-3V8a3 3 0 0 1 3-3h3.465l1.703-2.555A1 1 0 0 1 9 2h6a1 1 0 0 1 .832.445L17.535 5zM12 18a5 5 0 1 0 0-10 5 5 0 0 0 0 10zm0-2a3 3 0 1 1 0-6 3 3 0 0 1 0 6z"/>
    </defs>
    <g fill="none" fill-rule="evenodd">
        <mask id="b" fill="#fff">
            <use xlink:href="#a"/>
        </mask>
        <use fill="#000" fill-rule="nonzero" xlink:href="#a"/>
        <g fill="#000" mask="url(#b)">
            <path d="M0 0h24v24H0z"/>
        </g>
    </g>
</svg>
